F[BALLADE
CUT[Die Mordeltern
    Es waren auch zween Bauernsoehn',]
CNR[die hatten Lust in Krieg zu gehn,]
REG[Mitteleuropa, Deutschland (BRD) , Baden]
SRC[4, S. 310
    1902 gedruckt in Karlsruhe]
KEY[Q0085T 16  G 3/4 2/4]
MEL[-5_  -5_1_1__.1_  -7_1_2__.
    1_  -7_1_2__2__  3_353_
    123_3_  5_.43_5_  2__1_
    123_3_  5_.43_5_  2__1_ //] >>
FCT[Ballade, Habgier, Mord, Reue, Selbstmord]
CMT[Verzierungen (Nachschlaege) in den letzten  Zeilen.]
